!!!COM: Ockeghem, Johannes
!!!CDT: ~1425-1497/02/06
!!!OTL: Fors seulement l'attente
!!!AGN: Song; Chanson
!!!SCT: Ock7005
!!!SCA: Ock7005
!!!voices: 3
!!!ONB: The order and naming of the voices is correct.
**kern	**text	**kern	**text	**kern	**text
*staff3	*staff3	*staff2	*staff2	*staff1	*staff1
*Ivox	*	*Ivox	*	*Ivox	*
*I"Contra	*	*I"Discantus	*	*I"Tenor	*
*I'C	*	*I'D	*	*I'T	*
*clefF4	*	*clefG2	*	*clefG2	*
*k[]	*	*k[]	*	*k[]	*
*M2/1	*	*M2/1	*	*M2/1	*
*met(C|)	*	*met(C|)	*	*met(C|)	*
*>A	*>A	*>A	*>A	*>A	*>A
!!LO:LB:g=z
=1-	=1-	=1-	=1-	=1-	=1-
!!LO:TX:Z=12:t=Rondeau
0A	Fors	0a	Fors	0r	.
=2	=2	=2	=2	=2	=2
1A	seu-	1a	seu-	0r	.
1A	-le-	1a	-le-	.	.
=3	=3	=3	=3	=3	=3
[0c	-ment	1.a	-ment	0r	.
.	.	4g/	.	.	.
.	.	4f/	.	.	.
=4	=4	=4	=4	=4	=4
0c]	l'at-	1e	.	0r	.
.	.	1e	l'at-	.	.
=5	=5	=5	=5	=5	=5
1e	-ten-	1g	-ten-	0r	.
1e	-te	1g	-te	.	.
=6	=6	=6	=6	=6	=6
1.d	que	1.f	que	0r	.
4c\	.	2d/	.	.	.
4B\	.	.	.	.	.
=7	=7	=7	=7	=7	=7
0A	je	1f	je	0r	.
.	.	[1e	meu-	.	.
=8	=8	=8	=8	=8	=8
1G	meu-	2e/]	.	0r	.
.	.	2d/	.	.	.
1F	.	[1d	.	.	.
=9	=9	=9	=9	=9	=9
0E	.	1d]	.	0r	.
.	.	1c#i	.	.	.
=10	=10	=10	=10	=10	=10
1.D	.	0d	-re,	0a	Fors
4C/	.	.	.	.	.
4BB/	.	.	.	.	.
=11	=11	=11	=11	=11	=11
0AA	-re,	0r	.	1a	seu-
.	.	.	.	1a	-le-
=12	=12	=12	=12	=12	=12
0r	.	1.f	ment	1.a	-ment
.	.	4e/	.	4g/	.
.	.	4d/	.	4f/	.
=13	=13	=13	=13	=13	=13
0r	.	1.c	.	1e	.
.	.	.	.	1e	l'at-
.	.	2d/	l'at-	.	.
=14	=14	=14	=14	=14	=14
0r	.	1.e	-ten-	1g	-ten-
.	.	.	.	1a	-te
.	.	4d/	-te	.	.
.	.	4c/	.	.	.
=15	=15	=15	=15	=15	=15
0r	.	1d	que	1b	que
.	.	1e	je	1cc	je
=16	=16	=16	=16	=16	=16
0r	.	2d/	meu-	1.dd	meu-
.	.	1f	.	.	.
.	.	2e/	.	2cc\	.
=17	=17	=17	=17	=17	=17
0r	.	2d/	.	2b\	.
.	.	2c/	.	2a/	.
.	.	1B	.	1g	-re,
=18	=18	=18	=18	=18	=18
[0D	En	0A	-re,	1r	.
.	.	.	.	1a	En
=19	=19	=19	=19	=19	=19
1D]	.	1.d	En	1f	mon
1BB	mon	.	.	1d	.
.	.	2B/	mon	.	.
=20	=20	=20	=20	=20	=20
0AA	las	1c	las	0e	las
.	.	1A	.	.	.
=21	=21	=21	=21	=21	=21
0r	.	1B	cueur	1d	cueur
.	.	1c	nul	1a	nul
=22	=22	=22	=22	=22	=22
1r	.	1d	.	1b	.
1AA	es-	1e	es-	1cc	es-
=23	=23	=23	=23	=23	=23
1BB	-poir	1d	-poir	1dd	-poir
1C	.	[1a	ne	1ee	.
=24	=24	=24	=24	=24	=24
0D	.	1a]	.	1ff	ne
.	.	1a	de-	1ff	de-
=25	=25	=25	=25	=25	=25
0r	.	1f	-meu-	1ff	-meu-
.	.	[1g	.	1ee	.
=26	=26	=26	=26	=26	=26
0G	ne	1g]	.	1.dd	.
.	.	1b-	.	.	.
.	.	.	.	4cc\	.
.	.	.	.	4b\	.
=27	=27	=27	=27	=27	=27
0A	de-	1.a	.	[0cc	-re,
.	.	4g/	.	.	.
.	.	4f/	.	.	.
=28	=28	=28	=28	=28	=28
2.c\	-meu-	2e/	.	0cc]	.
.	.	2f/	.	.	.
4d\	.	.	.	.	.
2e\	.	2e/	.	.	.
[2f\	.	[2a/	.	.	.
=29	=29	=29	=29	=29	=29
4f\]	.	2a/]	.	0r	.
4e\	.	.	.	.	.
2d\	.	2f/	.	.	.
2.c#i\	.	1e	.	.	.
4B\	.	.	.	.	.
=30	=30	=30	=30	=30	=30
1d	-re,	1d	-re,	1r	.
[1A	Car	1e	Car	1cc	Car
=31	=31	=31	=31	=31	=31
2A\]	.	1f	mon	1dd	mon
4G\	mon	.	.	.	.
4F\	.	.	.	.	.
1E	ma-	1g	ma-	1ee	ma-
=32	=32	=32	=32	=32	=32
1.D	-leur	1a	.	1.ff	-leur
.	.	[1a	-leur	.	.
4C/	.	.	.	4ee\	.
4BB/	.	.	.	4dd\	.
=33	=33	=33	=33	=33	=33
0AA	.	2a/]	.	0cc	.
.	.	4g/	.	.	.
.	.	4f/	.	.	.
.	.	1e	.	.	.
=34	=34	=34	=34	=34	=34
1A	si	1e	si	1cc	si
1c	tres-	1e	tres-	1cc	tres-
=35	=35	=35	=35	=35	=35
0B-i	-fort	1.f	-fort	0dd	-fort
.	.	4e/	.	.	.
.	.	4d/	.	.	.
=36	=36	=36	=36	=36	=36
0A	me	1c	.	0ee	me
.	.	1cc	me	.	.
=37	=37	=37	=37	=37	=37
1r	.	2b\	tour-	1dd	tour-
.	.	2a/	.	.	.
1A	tour-	[1a	.	1cc	.
=38	=38	=38	=38	=38	=38
0E	.	1a]	.	0b	-men-
.	.	1g	.	.	.
=39	=39	=39	=39	=39	=39
1F	-men-	1a	-men-	[0a;	-te
[1D	.	2f/	.	.	.
.	.	[2d/	.	.	.
=40	=40	=40	=40	=40	=40
2D\]	.	2d/]	.	0a_	.
2AA/	.	2c/	.	.	.
2BB/	.	2d/	.	.	.
2C/	.	2e/	.	.	.
=41	=41	=41	=41	=41	=41
2D\	.	2f/	.	0a]	.
2E\	.	2e/	.	.	.
1AA;	-te	1c;	-te	.	.
=42	=42	=42	=42	=42	=42
*>B	*>B	*>B	*>B	*>B	*>B
1.A	Qu'il	0a	Qu'il	0r	.
2B\	.	.	.	.	.
=43	=43	=43	=43	=43	=43
1c	n'est	1g	n'est	0r	.
1d	.	1f	.	.	.
=44	=44	=44	=44	=44	=44
1.c	dou-	2.e/	dou-	0r	.
.	.	4f/	.	.	.
.	.	2g/	.	.	.
[2A\	.	2a/	.	.	.
=45	=45	=45	=45	=45	=45
1A]	.	2b\	.	0r	.
.	.	1cc	.	.	.
1F	.	.	.	.	.
.	.	2a/	.	.	.
=46	=46	=46	=46	=46	=46
1A	-leur	4b-i\	.	0r	.
.	.	4a/	.	.	.
.	.	4g/	.	.	.
.	.	4f/	.	.	.
1G	.	2.e/	.	.	.
.	.	4d/	.	.	.
=47	=47	=47	=47	=47	=47
0F	Qu'il	0f	-leur,	0cc	Qu'il
=48	=48	=48	=48	=48	=48
1B-	n'est	0r	.	1dd	n'est
1B-	dou-	.	.	1dd	dou-
=49	=49	=49	=49	=49	=49
1A	-leur	0cc	Qu'il	1cc	-leur
1F	que	.	.	1a	que
=50	=50	=50	=50	=50	=50
1r	.	1dd	n'est	1b-	par
1G	par	1dd	dou-	1b-	vous
=51	=51	=51	=51	=51	=51
0A	vous	1cc	-leur	1a	je
.	.	1a	que	1f	.
=52	=52	=52	=52	=52	=52
1G	je	1b-i	par	0g	ne
1E	ne	1b-i	vous	.	.
=53	=53	=53	=53	=53	=53
[0F	sen-	1a	je	1.f	sen-
.	.	[1cc	.	.	.
.	.	.	.	4e/	.
.	.	.	.	4d/	.
=54	=54	=54	=54	=54	=54
1F]	.	2cc\]	.	1c	-te,
.	.	4b-i\	ne	.	.
.	.	4a/	.	.	.
1E	-te,	1g	sen-	1r	.
=55	=55	=55	=55	=55	=55
1r	.	0f	-te,	0cc	Pour-
[1F	Pour-	.	.	.	.
=56	=56	=56	=56	=56	=56
0F_	.	0f	Pour-	1a	-ce
.	.	.	.	1a	que
=57	=57	=57	=57	=57	=57
1F]	.	1d	-ce	0f	suis
1D	-ce	1d	que	.	.
=58	=58	=58	=58	=58	=58
0AA	que	0c	suis	1.e	de
.	.	.	.	2f/	.
=59	=59	=59	=59	=59	=59
0r	.	1c	de	1g	.
.	.	1f	vous	1a	vous
=60	=60	=60	=60	=60	=60
0AA	per-	2e/	per-	2g/	per-
.	.	1d	.	2f/	.
.	.	.	.	1e	-dre
.	.	2c#i/	.	.	.
=61	=61	=61	=61	=61	=61
[0D	-dre	0d	-dre	1r	.
.	.	.	.	[1d	bien
=62	=62	=62	=62	=62	=62
0D_	.	1B	bien	1d]	.
.	.	1A	.	[1f	seu-
=63	=63	=63	=63	=63	=63
0D]	.	[0d	seu-	2f/]	.
.	.	.	.	2g/	.
.	.	.	.	[1a	.
=64	=64	=64	=64	=64	=64
1BB	bien	1d]	.	2a/]	.
.	.	.	.	2b\	.
1AA	.	1c	.	[1cc	.
=65	=65	=65	=65	=65	=65
0C	seu-	0e	.	2cc\]	.
.	.	.	.	2b\	.
.	.	.	.	[1g	.
=66	=66	=66	=66	=66	=66
0E	.	1c	.	2g/]	.
.	.	.	.	2a/	.
.	.	2d/	.	2b\	.
.	.	2e/	.	2cc\	.
=67	=67	=67	=67	=67	=67
0D	.	2f/	.	1.dd	.
.	.	1d	.	.	.
.	.	[2f/	.	2cc\	.
=68	=68	=68	=68	=68	=68
0A	.	2f/]	.	2a/	.
.	.	1e	.	2g/	.
.	.	.	.	1cc	.
.	.	2c/	.	.	.
=69	=69	=69	=69	=69	=69
0E	.	2d/	.	2b\	.
.	.	2A/	.	1a	.
.	.	1B	.	.	.
.	.	.	.	2g#i/	.
=70	=70	=70	=70	=70	=70
0AAl	-re.	0Al	-re.	0al	-re.
==	==	==	==	==	==
!!!RDF**kern: l=long note in original notation
!!!RDF**kern: i=editorial accidental
!!!RDF**kern: V=start of tuplet marker
!!!RDF**kern: Z=end of tuplet marker
!!!ENC: Chris Gage
!!!END: 2015/11/01/
!!!EED: Jesse Rodin
!!!EEV: 2015/11/01/
!!!ONB: Translated from MusicXML and edited on 2015/11/01/ by Craig Sapp
!!muse2ps: C^@{COM}^i2I150v100,100,120Q16z18c62l2600
!!!COM: Ockeghem, Johannes
!!!CDT: ~1425-1497/02/06
!!!OTL: Fors seulement lattente
!!!AGN: Song; Chanson
!!!SCT: Ock3005
!!!SCA: Ock3005
!!!voices: 3
!!!ONB: The order and naming of the voices is correct.
*thru	*thru	*thru	*thru	*thru	*thru
*staff3	*staff3	*staff2	*staff2	*staff1	*staff1
*Ivox	*	*Ivox	*	*Ivox	*
*I"Contra	*	*I"Discantus	*	*I"Tenor	*
*I'C	*	*I'D	*	*I'T	*
*clefF4	*	*clefG2	*	*clefG2	*
*k[]	*	*k[]	*	*k[]	*
*M2/1	*	*M2/1	*	*M2/1	*
*met(C|)	*	*met(C|)	*	*met(C|)	*
*>A	*>A	*>A	*>A	*>A	*>A
!!LO:LB:g=z
=71-	=71-	=71-	=71-	=71-	=71-
!!LO:TX:Z=12:t=Rondeau
0A	Vos-	0a	Vos-	0r	.
=72	=72	=72	=72	=72	=72
1A	-tre	1a	-tre	0r	.
1A	ri-	1a	ri-	.	.
=73	=73	=73	=73	=73	=73
[0c	-gueur	1.a	-gueur	0r	.
.	.	4g/	.	.	.
.	.	4f/	.	.	.
=74	=74	=74	=74	=74	=74
0c]	tel-le-	1e	tel-	0r	.
.	.	1e	-le-	.	.
=75	=75	=75	=75	=75	=75
1e	-ment	1g	-ment	0r	.
1e	m'y	1g	m'y	.	.
=76	=76	=76	=76	=76	=76
1.d	queurt	1.f	queurt	0r	.
4c\	.	2d/	.	.	.
4B\	.	.	.	.	.
=77	=77	=77	=77	=77	=77
0A	.	1f	.	0r	.
.	.	[1e	seu-	.	.
=78	=78	=78	=78	=78	=78
1G	seu-	2e/]	.	0r	.
.	.	2d/	.	.	.
1F	.	[1d	.	.	.
=79	=79	=79	=79	=79	=79
0E	.	1d]	.	0r	.
.	.	1c#i	.	.	.
=80	=80	=80	=80	=80	=80
1.D	.	0d	-re	0a	Vos-
4C/	.	.	.	.	.
4BB/	.	.	.	.	.
=81	=81	=81	=81	=81	=81
0AA	-re	0r	.	1a	-tre
.	.	.	.	1a	ri-
=82	=82	=82	=82	=82	=82
0r	.	1.f	gueur	1.a	-gueur
.	.	4e/	.	4g/	.
.	.	4d/	.	4f/	.
=83	=83	=83	=83	=83	=83
0r	.	1.c	tel-	1e	tel-
.	.	.	.	1e	-le-
.	.	2d/	-le-	.	.
=84	=84	=84	=84	=84	=84
0r	.	1.e	-ment	1g	-ment
.	.	.	.	1a	m'y
.	.	4d/	m'y	.	.
.	.	4c/	.	.	.
=85	=85	=85	=85	=85	=85
0r	.	1d	queurt	1b	queurt
.	.	1e	.	1cc	.
=86	=86	=86	=86	=86	=86
0r	.	2d/	seu-	1.dd	seu-
.	.	1f	.	.	.
.	.	2e/	.	2cc\	.
=87	=87	=87	=87	=87	=87
0r	.	2d/	.	2b\	.
.	.	2c/	.	2a/	.
.	.	1B	.	1g	-re
=88	=88	=88	=88	=88	=88
[0D	Qu'en	0A	-re	1r	.
.	.	.	.	1a	Qu'en
=89	=89	=89	=89	=89	=89
1D]	.	1.d	Qu'en	1f	ce
1BB	.	.	.	1d	.
.	.	2B/	ce	.	.
=90	=90	=90	=90	=90	=90
0AA	.	1c	par-	0e	par-
.	.	1A	.	.	.
=91	=91	=91	=91	=91	=91
0r	.	1B	-ti	1d	-ti
.	.	1c	il	1a	il
=92	=92	=92	=92	=92	=92
1r	.	1d	fault	1b	fault
1AA	que	1e	que	1cc	que
=93	=93	=93	=93	=93	=93
1BB	je	1d	je	1dd	je
1C	.	[1a	.	1ee	.
=94	=94	=94	=94	=94	=94
0D	.	1a]	.	1ff	.
.	.	1a	m'as-	1ff	m'as-
=95	=95	=95	=95	=95	=95
0r	.	1f	-seu-	1ff	-seu-
.	.	[1g	.	1ee	.
=96	=96	=96	=96	=96	=96
0G	m'as-	1g]	.	1.dd	.
.	.	1b-	.	.	.
.	.	.	.	4cc\	.
.	.	.	.	4b\	.
=97	=97	=97	=97	=97	=97
0A	.	1.a	.	[0cc	-re,
.	.	4g/	.	.	.
.	.	4f/	.	.	.
=98	=98	=98	=98	=98	=98
2.c\	-seu-	2e/	.	0cc]	.
.	.	2f/	.	.	.
4d\	.	.	.	.	.
2e\	.	2e/	.	.	.
[2f\	.	[2a/	.	.	.
=99	=99	=99	=99	=99	=99
4f\]	.	2a/]	.	0r	.
4e\	.	.	.	.	.
2d\	.	2f/	.	.	.
2.c#i\	.	1e	.	.	.
4B\	.	.	.	.	.
=100	=100	=100	=100	=100	=100
1d	-re,	1d	-re,	1r	.
[1A	Dont	1e	Dont	1cc	Dont
=101	=101	=101	=101	=101	=101
2A\]	.	1f	je	1dd	je
4G\	je	.	.	.	.
4F\	.	.	.	.	.
1E	n'ay	1g	n'ay	1ee	n'ay
=102	=102	=102	=102	=102	=102
1.D	bien	1a	.	1.ff	bien
.	.	[1a	bien	.	.
4C/	.	.	.	4ee\	.
4BB/	.	.	.	4dd\	.
=103	=103	=103	=103	=103	=103
0AA	.	2a/]	.	0cc	.
.	.	4g/	.	.	.
.	.	4f/	.	.	.
.	.	1e	.	.	.
=104	=104	=104	=104	=104	=104
1A	qui	1e	qui	1cc	qui
1c	en	1e	en	1cc	en
=105	=105	=105	=105	=105	=105
0B-i	riens	1.f	riens	0dd	riens
.	.	4e/	.	.	.
.	.	4d/	.	.	.
=106	=106	=106	=106	=106	=106
0A	me	1c	.	0ee	me
.	.	1cc	me	.	.
=107	=107	=107	=107	=107	=107
1r	.	2b\	.	1dd	con-
.	.	2a/	.	.	.
1A	con-	[1a	con-	1cc	.
=108	=108	=108	=108	=108	=108
0E	.	1a]	.	0b	-ten-
.	.	1g	.	.	.
=109	=109	=109	=109	=109	=109
1F	-ten-	1a	-ten-	[0a;	-te
[1D	.	2f/	.	.	.
.	.	[2d/	.	.	.
=110	=110	=110	=110	=110	=110
2D\]	.	2d/]	.	0a_	.
2AA/	.	2c/	.	.	.
2BB/	.	2d/	.	.	.
2C/	.	2e/	.	.	.
=111	=111	=111	=111	=111	=111
2D\	.	2f/	.	0a]	.
2E\	.	2e/	.	.	.
1AA;	-te&	1c;	-te&	.	.
=	=	=	=	=	=
!!!RDF**kern: l=long note in original notation
!!!RDF**kern: i=editorial accidental
!!!RDF**kern: V=start of tuplet marker
!!!RDF**kern: Z=end of tuplet marker
!!!ENC: Chris Gage
!!!END: 2015/11/01/
!!!EED: Jesse Rodin
!!!EEV: 2015/11/01/
!!!ONB: Translated from MusicXML and edited on 2015/11/01/ by Craig Sapp
!!muse2ps: C^@{COM}^i2I150v100,100,120Q16z18c62l2600
!!!COM: Ockeghem, Johannes
!!!CDT: ~1425-1497/02/06
!!!OTL: Fors seulement lattente
!!!AGN: Song; Chanson
!!!SCT: Ock3005
!!!SCA: Ock3005
!!!voices: 3
!!!ONB: The order and naming of the voices is correct.
*thru	*thru	*thru	*thru	*thru	*thru
*staff3	*staff3	*staff2	*staff2	*staff1	*staff1
*Ivox	*	*Ivox	*	*Ivox	*
*I"Contra	*	*I"Discantus	*	*I"Tenor	*
*I'C	*	*I'D	*	*I'T	*
*clefF4	*	*clefG2	*	*clefG2	*
*k[]	*	*k[]	*	*k[]	*
*M2/1	*	*M2/1	*	*M2/1	*
*met(C|)	*	*met(C|)	*	*met(C|)	*
*>A	*>A	*>A	*>A	*>A	*>A
!!LO:LB:g=z
=112-	=112-	=112-	=112-	=112-	=112-
!!LO:TX:Z=12:t=Rondeau
0A	Fors	0a	Fors	0r	.
=113	=113	=113	=113	=113	=113
1A	seu-	1a	seu-	0r	.
1A	-le-	1a	-le-	.	.
=114	=114	=114	=114	=114	=114
[0c	-ment	1.a	-ment	0r	.
.	.	4g/	.	.	.
.	.	4f/	.	.	.
=115	=115	=115	=115	=115	=115
0c]	l'at-	1e	.	0r	.
.	.	1e	l'at-	.	.
=116	=116	=116	=116	=116	=116
1e	-ten-	1g	-ten-	0r	.
1e	-te	1g	-te	.	.
=117	=117	=117	=117	=117	=117
1.d	que	1.f	que	0r	.
4c\	.	2d/	.	.	.
4B\	.	.	.	.	.
=118	=118	=118	=118	=118	=118
0A	je	1f	je	0r	.
.	.	[1e	meu-	.	.
=119	=119	=119	=119	=119	=119
1G	meu-	2e/]	.	0r	.
.	.	2d/	.	.	.
1F	.	[1d	.	.	.
=120	=120	=120	=120	=120	=120
0E	.	1d]	.	0r	.
.	.	1c#i	.	.	.
=121	=121	=121	=121	=121	=121
1.D	.	0d	-re,	0a	Fors
4C/	.	.	.	.	.
4BB/	.	.	.	.	.
=122	=122	=122	=122	=122	=122
0AA	-re,	0r	.	1a	seu-
.	.	.	.	1a	-le-
=123	=123	=123	=123	=123	=123
0r	.	1.f	ment	1.a	-ment
.	.	4e/	.	4g/	.
.	.	4d/	.	4f/	.
=124	=124	=124	=124	=124	=124
0r	.	1.c	.	1e	.
.	.	.	.	1e	l'at-
.	.	2d/	l'at-	.	.
=125	=125	=125	=125	=125	=125
0r	.	1.e	-ten-	1g	-ten-
.	.	.	.	1a	-te
.	.	4d/	-te	.	.
.	.	4c/	.	.	.
=126	=126	=126	=126	=126	=126
0r	.	1d	que	1b	que
.	.	1e	je	1cc	je
=127	=127	=127	=127	=127	=127
0r	.	2d/	meu-	1.dd	meu-
.	.	1f	.	.	.
.	.	2e/	.	2cc\	.
=128	=128	=128	=128	=128	=128
0r	.	2d/	.	2b\	.
.	.	2c/	.	2a/	.
.	.	1B	.	1g	-re,
=129	=129	=129	=129	=129	=129
[0D	En	0A	-re,	1r	.
.	.	.	.	1a	En
=130	=130	=130	=130	=130	=130
1D]	.	1.d	En	1f	mon
1BB	mon	.	.	1d	.
.	.	2B/	mon	.	.
=131	=131	=131	=131	=131	=131
0AA	las	1c	las	0e	las
.	.	1A	.	.	.
=132	=132	=132	=132	=132	=132
0r	.	1B	cueur	1d	cueur
.	.	1c	nul	1a	nul
=133	=133	=133	=133	=133	=133
1r	.	1d	.	1b	.
1AA	es-	1e	es-	1cc	es-
=134	=134	=134	=134	=134	=134
1BB	-poir	1d	-poir	1dd	-poir
1C	.	[1a	ne	1ee	.
=135	=135	=135	=135	=135	=135
0D	.	1a]	.	1ff	ne
.	.	1a	de-	1ff	de-
=136	=136	=136	=136	=136	=136
0r	.	1f	-meu-	1ff	-meu-
.	.	[1g	.	1ee	.
=137	=137	=137	=137	=137	=137
0G	ne	1g]	.	1.dd	.
.	.	1b-	.	.	.
.	.	.	.	4cc\	.
.	.	.	.	4b\	.
=138	=138	=138	=138	=138	=138
0A	de-	1.a	.	[0cc	-re,
.	.	4g/	.	.	.
.	.	4f/	.	.	.
=139	=139	=139	=139	=139	=139
2.c\	-meu-	2e/	.	0cc]	.
.	.	2f/	.	.	.
4d\	.	.	.	.	.
2e\	.	2e/	.	.	.
[2f\	.	[2a/	.	.	.
=140	=140	=140	=140	=140	=140
4f\]	.	2a/]	.	0r	.
4e\	.	.	.	.	.
2d\	.	2f/	.	.	.
2.c#i\	.	1e	.	.	.
4B\	.	.	.	.	.
=141	=141	=141	=141	=141	=141
1d	-re,	1d	-re,	1r	.
[1A	Car	1e	Car	1cc	Car
=142	=142	=142	=142	=142	=142
2A\]	.	1f	mon	1dd	mon
4G\	mon	.	.	.	.
4F\	.	.	.	.	.
1E	ma-	1g	ma-	1ee	ma-
=143	=143	=143	=143	=143	=143
1.D	-leur	1a	.	1.ff	-leur
.	.	[1a	-leur	.	.
4C/	.	.	.	4ee\	.
4BB/	.	.	.	4dd\	.
=144	=144	=144	=144	=144	=144
0AA	.	2a/]	.	0cc	.
.	.	4g/	.	.	.
.	.	4f/	.	.	.
.	.	1e	.	.	.
=145	=145	=145	=145	=145	=145
1A	si	1e	si	1cc	si
1c	tres-	1e	tres-	1cc	tres-
=146	=146	=146	=146	=146	=146
0B-i	-fort	1.f	-fort	0dd	-fort
.	.	4e/	.	.	.
.	.	4d/	.	.	.
=147	=147	=147	=147	=147	=147
0A	me	1c	.	0ee	me
.	.	1cc	me	.	.
=148	=148	=148	=148	=148	=148
1r	.	2b\	tour-	1dd	tour-
.	.	2a/	.	.	.
1A	tour-	[1a	.	1cc	.
=149	=149	=149	=149	=149	=149
0E	.	1a]	.	0b	-men-
.	.	1g	.	.	.
=150	=150	=150	=150	=150	=150
1F	-men-	1a	-men-	[0a;	-te
[1D	.	2f/	.	.	.
.	.	[2d/	.	.	.
=151	=151	=151	=151	=151	=151
2D\]	.	2d/]	.	0a_	.
2AA/	.	2c/	.	.	.
2BB/	.	2d/	.	.	.
2C/	.	2e/	.	.	.
=152	=152	=152	=152	=152	=152
2D\	.	2f/	.	0a]	.
2E\	.	2e/	.	.	.
1AA;	-te	1c;	-te	.	.
=	=	=	=	=	=
!!!RDF**kern: l=long note in original notation
!!!RDF**kern: i=editorial accidental
!!!RDF**kern: V=start of tuplet marker
!!!RDF**kern: Z=end of tuplet marker
!!!ENC: Chris Gage
!!!END: 2015/11/01/
!!!EED: Jesse Rodin
!!!EEV: 2015/11/01/
!!!ONB: Translated from MusicXML and edited on 2015/11/01/ by Craig Sapp
!!muse2ps: C^@{COM}^i2I150v100,100,120Q16z18c62l2600
!!!COM: Ockeghem, Johannes
!!!CDT: ~1425-1497/02/06
!!!OTL: Fors seulement lattente
!!!AGN: Song; Chanson
!!!SCT: Ock3005
!!!SCA: Ock3005
!!!voices: 3
!!!ONB: The order and naming of the voices is correct.
*staff3	*staff3	*staff2	*staff2	*staff1	*staff1
*Ivox	*	*Ivox	*	*Ivox	*
*I"Contra	*	*I"Discantus	*	*I"Tenor	*
*I'C	*	*I'D	*	*I'T	*
*clefF4	*	*clefG2	*	*clefG2	*
*k[]	*	*k[]	*	*k[]	*
*M2/1	*	*M2/1	*	*M2/1	*
*met(C|)	*	*met(C|)	*	*met(C|)	*
*>A	*>A	*>A	*>A	*>A	*>A
!!LO:LB:g=z
=153-	=153-	=153-	=153-	=153-	=153-
!!LO:TX:Z=12:t=Rondeau
0A	Mon	0a	Mon	0r	.
=154	=154	=154	=154	=154	=154
1A	des-	1a	des-	0r	.
1A	-con-	1a	-con-	.	.
=155	=155	=155	=155	=155	=155
[0c	-fort	1.a	-fort	0r	.
.	.	4g/	.	.	.
.	.	4f/	.	.	.
=156	=156	=156	=156	=156	=156
0c]	tou-	1e	.	0r	.
.	.	1e	tou-	.	.
=157	=157	=157	=157	=157	=157
1e	-te	1g	-te	0r	.
1e	seu-	1g	seu-	.	.
=158	=158	=158	=158	=158	=158
1.d	-le	1.f	-le	0r	.
4c\	.	2d/	.	.	.
4B\	.	.	.	.	.
=159	=159	=159	=159	=159	=159
0A	je	1f	je	0r	.
.	.	[1e	pleu-	.	.
=160	=160	=160	=160	=160	=160
1G	pleu-	2e/]	.	0r	.
.	.	2d/	.	.	.
1F	.	[1d	.	.	.
=161	=161	=161	=161	=161	=161
0E	.	1d]	.	0r	.
.	.	1c#i	.	.	.
=162	=162	=162	=162	=162	=162
1.D	.	0d	-re,	0a	Mon
4C/	.	.	.	.	.
4BB/	.	.	.	.	.
=163	=163	=163	=163	=163	=163
0AA	-re,	0r	.	1a	des-
.	.	.	.	1a	-con-
=164	=164	=164	=164	=164	=164
0r	.	1.f	fort	1.a	-fort
.	.	4e/	.	4g/	.
.	.	4d/	.	4f/	.
=165	=165	=165	=165	=165	=165
0r	.	1.c	.	1e	.
.	.	.	.	1e	tou-
.	.	2d/	tou-	.	.
=166	=166	=166	=166	=166	=166
0r	.	1.e	-te	1g	-te
.	.	.	.	1a	seu-
.	.	4d/	seu-	.	.
.	.	4c/	.	.	.
=167	=167	=167	=167	=167	=167
0r	.	1d	-le	1b	-le
.	.	1e	je	1cc	je
=168	=168	=168	=168	=168	=168
0r	.	2d/	pleu-	1.dd	pleu-
.	.	1f	.	.	.
.	.	2e/	.	2cc\	.
=169	=169	=169	=169	=169	=169
0r	.	2d/	.	2b\	.
.	.	2c/	.	2a/	.
.	.	1B	-re,	1g	-re,
=170	=170	=170	=170	=170	=170
[0D	En	0A	En	1r	.
.	.	.	.	1a	En
=171	=171	=171	=171	=171	=171
1D]	.	1.d	mau-	1f	mau-
1BB	.	.	.	1d	-di-
.	.	2B/	-di-	.	.
=172	=172	=172	=172	=172	=172
0AA	.	1c	-sant	0e	-sant
.	.	1A	.	.	.
=173	=173	=173	=173	=173	=173
0r	.	1B	.	1d	.
.	.	1c	sur	1a	sur
=174	=174	=174	=174	=174	=174
1r	.	1d	.	1b	.
1AA	ma	1e	ma	1cc	ma
=175	=175	=175	=175	=175	=175
1BB	foy	1d	foy	1dd	foy
1C	.	[1a	a	1ee	.
=176	=176	=176	=176	=176	=176
0D	.	1a]	.	1ff	a
.	.	1a	tou-	1ff	tou-
=177	=177	=177	=177	=177	=177
0r	.	1f	-te heu-	1ff	-te heu-
.	.	[1g	.	1ee	.
=178	=178	=178	=178	=178	=178
0G	a	1g]	.	1.dd	.
.	.	1b-	.	.	.
.	.	.	.	4cc\	.
.	.	.	.	4b\	.
=179	=179	=179	=179	=179	=179
0A	tou-	1.a	.	[0cc	-re
.	.	4g/	.	.	.
.	.	4f/	.	.	.
=180	=180	=180	=180	=180	=180
2.c\	-te heu-	2e/	.	0cc]	.
.	.	2f/	.	.	.
4d\	.	.	.	.	.
2e\	.	2e/	.	.	.
[2f\	.	[2a/	.	.	.
=181	=181	=181	=181	=181	=181
4f\]	.	2a/]	.	0r	.
4e\	.	.	.	.	.
2d\	.	2f/	.	.	.
2.c#i\	.	1e	.	.	.
4B\	.	.	.	.	.
=182	=182	=182	=182	=182	=182
1d	-re	1d	-re	1r	.
[1A	Ma	1e	Ma	1cc	Ma
=183	=183	=183	=183	=183	=183
2A\]	.	1f	le-	1dd	le-
4G\	le-	.	.	.	.
4F\	.	.	.	.	.
1E	-au-	1g	-au-	1ee	-au-
=184	=184	=184	=184	=184	=184
1.D	-té,	1a	.	1.ff	-té,
.	.	[1a	-té,	.	.
4C/	.	.	.	4ee\	.
4BB/	.	.	.	4dd\	.
=185	=185	=185	=185	=185	=185
0AA	.	2a/]	.	0cc	.
.	.	4g/	.	.	.
.	.	4f/	.	.	.
.	.	1e	.	.	.
=186	=186	=186	=186	=186	=186
1A	qui	1e	qui	1cc	qui
1c	tant	1e	tant	1cc	tant
=187	=187	=187	=187	=187	=187
0B-i	m'a	1.f	m'a	0dd	m'a
.	.	4e/	.	.	.
.	.	4d/	.	.	.
=188	=188	=188	=188	=188	=188
0A	fait	1c	fait	0ee	fait
.	.	1cc	do-	.	.
=189	=189	=189	=189	=189	=189
1r	.	2b\	-len-	1dd	do-
.	.	2a/	.	.	.
1A	do-	[1a	.	1cc	.
=190	=190	=190	=190	=190	=190
0E	.	1a]	.	0b	-len-
.	.	1g	.	.	.
=191	=191	=191	=191	=191	=191
1F	-len-	1a	.	[0a;	-te.
[1D	.	2f/	.	.	.
.	.	[2d/	.	.	.
=192	=192	=192	=192	=192	=192
2D\]	.	2d/]	.	0a_	.
2AA/	.	2c/	.	.	.
2BB/	.	2d/	.	.	.
2C/	.	2e/	.	.	.
=193	=193	=193	=193	=193	=193
2D\	.	2f/	.	0a]	.
2E\	.	2e/	.	.	.
1AA;	-te.	1c;	-te.	.	.
=194	=194	=194	=194	=194	=194
*>B	*>B	*>B	*>B	*>B	*>B
1.A	Las,	0a	Las,	0r	.
2B\	que	.	.	.	.
=195	=195	=195	=195	=195	=195
1c	.	1g	que	0r	.
1d	.	1f	.	.	.
=196	=196	=196	=196	=196	=196
1.c	je	2.e/	je	0r	.
.	.	4f/	.	.	.
.	.	2g/	.	.	.
[2A\	.	2a/	.	.	.
=197	=197	=197	=197	=197	=197
1A]	.	2b\	.	0r	.
.	.	1cc	.	.	.
1F	.	.	.	.	.
.	.	2a/	.	.	.
=198	=198	=198	=198	=198	=198
1A	suis	4b-i\	.	0r	.
.	.	4a/	.	.	.
.	.	4g/	.	.	.
.	.	4f/	.	.	.
1G	.	2.e/	.	.	.
.	.	4d/	.	.	.
=199	=199	=199	=199	=199	=199
0F	Las,	0f	suis	0cc	Las,
=200	=200	=200	=200	=200	=200
1B-	que	0r	.	1dd	que
1B-	je	.	.	1dd	je
=201	=201	=201	=201	=201	=201
1A	suis	0cc	Las,	1cc	suis
1F	de	.	.	1a	de
=202	=202	=202	=202	=202	=202
1r	.	1dd	que	1b-	vi-
1G	vi-	1dd	je	1b-	-vre
=203	=203	=203	=203	=203	=203
0A	-vre	1cc	suis	1a	mal
.	.	1a	de	1f	.
=204	=204	=204	=204	=204	=204
1G	mal	1b-i	vi-	0g	con-
1E	con-	1b-i	-vre	.	.
=205	=205	=205	=205	=205	=205
[0F	-ten-	1a	mal	1.f	-ten-
.	.	[1cc	.	.	.
.	.	.	.	4e/	.
.	.	.	.	4d/	.
=206	=206	=206	=206	=206	=206
1F]	.	2cc\]	.	1c	-te
.	.	4b-i\	con-	.	.
.	.	4a/	.	.	.
1E	-te	1g	-ten-	1r	.
=207	=207	=207	=207	=207	=207
1r	.	0f	-te	0cc	Quant
[1F	Quant	.	.	.	.
=208	=208	=208	=208	=208	=208
0F_	.	0f	Quant	1a	de
.	.	.	.	1a	par
=209	=209	=209	=209	=209	=209
1F]	.	1d	de	0f	vous
1D	de	1d	par	.	.
=210	=210	=210	=210	=210	=210
0AA	par	0c	vous	1.e	n'ay
.	.	.	.	2f/	.
=211	=211	=211	=211	=211	=211
0r	.	1c	n'ay	1g	.
.	.	1f	.	1a	.
=212	=212	=212	=212	=212	=212
0AA	riens	2e/	riens	2g/	riens
.	.	1d	.	2f/	.
.	.	.	.	1e	.
.	.	2c#i/	.	.	.
=213	=213	=213	=213	=213	=213
[0D	.	0d	.	1r	.
.	.	.	.	[1d	qui
=214	=214	=214	=214	=214	=214
0D_	.	1B	qui	1d]	.
.	.	1A	.	[1f	me
=215	=215	=215	=215	=215	=215
0D]	.	[0d	me	2f/]	.
.	.	.	.	2g/	de-
.	.	.	.	[1a	-meu-
=216	=216	=216	=216	=216	=216
1BB	de-	1d]	.	2a/]	.
.	.	.	.	2b\	.
1AA	.	1c	de-	[1cc	.
=217	=217	=217	=217	=217	=217
0C	-meu-	0e	-meu-	2cc\]	.
.	.	.	.	2b\	.
.	.	.	.	[1g	.
=218	=218	=218	=218	=218	=218
0E	.	1c	.	2g/]	.
.	.	.	.	2a/	.
.	.	2d/	.	2b\	.
.	.	2e/	.	2cc\	.
=219	=219	=219	=219	=219	=219
0D	.	2f/	.	1.dd	.
.	.	1d	.	.	.
.	.	[2f/	.	2cc\	.
=220	=220	=220	=220	=220	=220
0A	.	2f/]	.	2a/	.
.	.	1e	.	2g/	.
.	.	.	.	1cc	.
.	.	2c/	.	.	.
=221	=221	=221	=221	=221	=221
0E	.	2d/	.	2b\	.
.	.	2A/	.	1a	.
.	.	1B	.	.	.
.	.	.	.	2g#i/	.
=222	=222	=222	=222	=222	=222
0AAl	-re	0Al	-re	0al	-re
==	==	==	==	==	==
!!!RDF**kern: l=long note in original notation
!!!RDF**kern: i=editorial accidental
!!!RDF**kern: V=start of tuplet marker
!!!RDF**kern: Z=end of tuplet marker
!!!ENC: Chris Gage
!!!END: 2015/11/01/
!!!EED: Jesse Rodin
!!!EEV: 2015/11/01/
!!!ONB: Translated from MusicXML and edited on 2015/11/01/ by Craig Sapp
!!muse2ps: C^@{COM}^i2I150v100,100,120Q16z18c62l2600
!!!COM: Ockeghem, Johannes
!!!CDT: ~1425-1497/02/06
!!!OTL: Fors seulement lattente
!!!AGN: Song; Chanson
!!!SCT: Ock3005
!!!SCA: Ock3005
!!!voices: 3
!!!ONB: The order and naming of the voices is correct.
*staff3	*staff3	*staff2	*staff2	*staff1	*staff1
*Ivox	*	*Ivox	*	*Ivox	*
*I"Contra	*	*I"Discantus	*	*I"Tenor	*
*I'C	*	*I'D	*	*I'T	*
*clefF4	*	*clefG2	*	*clefG2	*
*k[]	*	*k[]	*	*k[]	*
*M2/1	*	*M2/1	*	*M2/1	*
*met(C|)	*	*met(C|)	*	*met(C|)	*
*>A	*>A	*>A	*>A	*>A	*>A
!!LO:LB:g=z
=223-	=223-	=223-	=223-	=223-	=223-
!!LO:TX:Z=12:t=Rondeau
0A	Fors	0a	Fors	0r	.
=224	=224	=224	=224	=224	=224
1A	seu-	1a	seu-	0r	.
1A	-le-	1a	-le-	.	.
=225	=225	=225	=225	=225	=225
[0c	-ment	1.a	-ment	0r	.
.	.	4g/	.	.	.
.	.	4f/	.	.	.
=226	=226	=226	=226	=226	=226
0c]	l'at-	1e	.	0r	.
.	.	1e	l'at-	.	.
=227	=227	=227	=227	=227	=227
1e	-ten-	1g	-ten-	0r	.
1e	-te	1g	-te	.	.
=228	=228	=228	=228	=228	=228
1.d	que	1.f	que	0r	.
4c\	.	2d/	.	.	.
4B\	.	.	.	.	.
=229	=229	=229	=229	=229	=229
0A	je	1f	je	0r	.
.	.	[1e	meu-	.	.
=230	=230	=230	=230	=230	=230
1G	meu-	2e/]	.	0r	.
.	.	2d/	.	.	.
1F	.	[1d	.	.	.
=231	=231	=231	=231	=231	=231
0E	.	1d]	.	0r	.
.	.	1c#i	.	.	.
=232	=232	=232	=232	=232	=232
1.D	.	0d	-re,	0a	Fors
4C/	.	.	.	.	.
4BB/	.	.	.	.	.
=233	=233	=233	=233	=233	=233
0AA	-re,	0r	.	1a	seu-
.	.	.	.	1a	-le-
=234	=234	=234	=234	=234	=234
0r	.	1.f	ment	1.a	-ment
.	.	4e/	.	4g/	.
.	.	4d/	.	4f/	.
=235	=235	=235	=235	=235	=235
0r	.	1.c	.	1e	.
.	.	.	.	1e	l'at-
.	.	2d/	l'at-	.	.
=236	=236	=236	=236	=236	=236
0r	.	1.e	-ten-	1g	-ten-
.	.	.	.	1a	-te
.	.	4d/	-te	.	.
.	.	4c/	.	.	.
=237	=237	=237	=237	=237	=237
0r	.	1d	que	1b	que
.	.	1e	je	1cc	je
=238	=238	=238	=238	=238	=238
0r	.	2d/	meu-	1.dd	meu-
.	.	1f	.	.	.
.	.	2e/	.	2cc\	.
=239	=239	=239	=239	=239	=239
0r	.	2d/	.	2b\	.
.	.	2c/	.	2a/	.
.	.	1B	.	1g	-re,
=240	=240	=240	=240	=240	=240
[0D	En	0A	-re,	1r	.
.	.	.	.	1a	En
=241	=241	=241	=241	=241	=241
1D]	.	1.d	En	1f	mon
1BB	mon	.	.	1d	.
.	.	2B/	mon	.	.
=242	=242	=242	=242	=242	=242
0AA	las	1c	las	0e	las
.	.	1A	.	.	.
=243	=243	=243	=243	=243	=243
0r	.	1B	cueur	1d	cueur
.	.	1c	nul	1a	nul
=244	=244	=244	=244	=244	=244
1r	.	1d	.	1b	.
1AA	es-	1e	es-	1cc	es-
=245	=245	=245	=245	=245	=245
1BB	-poir	1d	-poir	1dd	-poir
1C	.	[1a	ne	1ee	.
=246	=246	=246	=246	=246	=246
0D	.	1a]	.	1ff	ne
.	.	1a	de-	1ff	de-
=247	=247	=247	=247	=247	=247
0r	.	1f	-meu-	1ff	-meu-
.	.	[1g	.	1ee	.
=248	=248	=248	=248	=248	=248
0G	ne	1g]	.	1.dd	.
.	.	1b-	.	.	.
.	.	.	.	4cc\	.
.	.	.	.	4b\	.
=249	=249	=249	=249	=249	=249
0A	de-	1.a	.	[0cc	-re,
.	.	4g/	.	.	.
.	.	4f/	.	.	.
=250	=250	=250	=250	=250	=250
2.c\	-meu-	2e/	.	0cc]	.
.	.	2f/	.	.	.
4d\	.	.	.	.	.
2e\	.	2e/	.	.	.
[2f\	.	[2a/	.	.	.
=251	=251	=251	=251	=251	=251
4f\]	.	2a/]	.	0r	.
4e\	.	.	.	.	.
2d\	.	2f/	.	.	.
2.c#i\	.	1e	.	.	.
4B\	.	.	.	.	.
=252	=252	=252	=252	=252	=252
1d	-re,	1d	-re,	1r	.
[1A	Car	1e	Car	1cc	Car
=253	=253	=253	=253	=253	=253
2A\]	.	1f	mon	1dd	mon
4G\	mon	.	.	.	.
4F\	.	.	.	.	.
1E	ma-	1g	ma-	1ee	ma-
=254	=254	=254	=254	=254	=254
1.D	-leur	1a	.	1.ff	-leur
.	.	[1a	-leur	.	.
4C/	.	.	.	4ee\	.
4BB/	.	.	.	4dd\	.
=255	=255	=255	=255	=255	=255
0AA	.	2a/]	.	0cc	.
.	.	4g/	.	.	.
.	.	4f/	.	.	.
.	.	1e	.	.	.
=256	=256	=256	=256	=256	=256
1A	si	1e	si	1cc	si
1c	tres-	1e	tres-	1cc	tres-
=257	=257	=257	=257	=257	=257
0B-i	-fort	1.f	-fort	0dd	-fort
.	.	4e/	.	.	.
.	.	4d/	.	.	.
=258	=258	=258	=258	=258	=258
0A	me	1c	.	0ee	me
.	.	1cc	me	.	.
=259	=259	=259	=259	=259	=259
1r	.	2b\	tour-	1dd	tour-
.	.	2a/	.	.	.
1A	tour-	[1a	.	1cc	.
=260	=260	=260	=260	=260	=260
0E	.	1a]	.	0b	-men-
.	.	1g	.	.	.
=261	=261	=261	=261	=261	=261
1F	-men-	1a	-men-	[0a;	-te
[1D	.	2f/	.	.	.
.	.	[2d/	.	.	.
=262	=262	=262	=262	=262	=262
2D\]	.	2d/]	.	0a_	.
2AA/	.	2c/	.	.	.
2BB/	.	2d/	.	.	.
2C/	.	2e/	.	.	.
=263	=263	=263	=263	=263	=263
2D\	.	2f/	.	0a]	.
2E\	.	2e/	.	.	.
1AA;	-te	1c;	-te	.	.
=264	=264	=264	=264	=264	=264
*>B	*>B	*>B	*>B	*>B	*>B
1.A	Qu'il	0a	Qu'il	0r	.
2B\	.	.	.	.	.
=265	=265	=265	=265	=265	=265
1c	n'est	1g	n'est	0r	.
1d	.	1f	.	.	.
=266	=266	=266	=266	=266	=266
1.c	dou-	2.e/	dou-	0r	.
.	.	4f/	.	.	.
.	.	2g/	.	.	.
[2A\	.	2a/	.	.	.
=267	=267	=267	=267	=267	=267
1A]	.	2b\	.	0r	.
.	.	1cc	.	.	.
1F	.	.	.	.	.
.	.	2a/	.	.	.
=268	=268	=268	=268	=268	=268
1A	-leur	4b-i\	.	0r	.
.	.	4a/	.	.	.
.	.	4g/	.	.	.
.	.	4f/	.	.	.
1G	.	2.e/	.	.	.
.	.	4d/	.	.	.
=269	=269	=269	=269	=269	=269
0F	Qu'il	0f	-leur,	0cc	Qu'il
=270	=270	=270	=270	=270	=270
1B-	n'est	0r	.	1dd	n'est
1B-	dou-	.	.	1dd	dou-
=271	=271	=271	=271	=271	=271
1A	-leur	0cc	Qu'il	1cc	-leur
1F	que	.	.	1a	que
=272	=272	=272	=272	=272	=272
1r	.	1dd	n'est	1b-	par
1G	par	1dd	dou-	1b-	vous
=273	=273	=273	=273	=273	=273
0A	vous	1cc	-leur	1a	je
.	.	1a	que	1f	.
=274	=274	=274	=274	=274	=274
1G	je	1b-i	par	0g	ne
1E	ne	1b-i	vous	.	.
=275	=275	=275	=275	=275	=275
[0F	sen-	1a	je	1.f	sen-
.	.	[1cc	.	.	.
.	.	.	.	4e/	.
.	.	.	.	4d/	.
=276	=276	=276	=276	=276	=276
1F]	.	2cc\]	.	1c	-te,
.	.	4b-i\	ne	.	.
.	.	4a/	.	.	.
1E	-te,	1g	sen-	1r	.
=277	=277	=277	=277	=277	=277
1r	.	0f	-te,	0cc	Pour-
[1F	Pour-	.	.	.	.
=278	=278	=278	=278	=278	=278
0F_	.	0f	Pour-	1a	-ce
.	.	.	.	1a	que
=279	=279	=279	=279	=279	=279
1F]	.	1d	-ce	0f	suis
1D	-ce	1d	que	.	.
=280	=280	=280	=280	=280	=280
0AA	que	0c	suis	1.e	de
.	.	.	.	2f/	.
=281	=281	=281	=281	=281	=281
0r	.	1c	de	1g	.
.	.	1f	vous	1a	vous
=282	=282	=282	=282	=282	=282
0AA	per-	2e/	per-	2g/	per-
.	.	1d	.	2f/	.
.	.	.	.	1e	-dre
.	.	2c#i/	.	.	.
=283	=283	=283	=283	=283	=283
[0D	-dre	0d	-dre	1r	.
.	.	.	.	[1d	bien
=284	=284	=284	=284	=284	=284
0D_	.	1B	bien	1d]	.
.	.	1A	.	[1f	seu-
=285	=285	=285	=285	=285	=285
0D]	.	[0d	seu-	2f/]	.
.	.	.	.	2g/	.
.	.	.	.	[1a	.
=286	=286	=286	=286	=286	=286
1BB	bien	1d]	.	2a/]	.
.	.	.	.	2b\	.
1AA	.	1c	.	[1cc	.
=287	=287	=287	=287	=287	=287
0C	seu-	0e	.	2cc\]	.
.	.	.	.	2b\	.
.	.	.	.	[1g	.
=288	=288	=288	=288	=288	=288
0E	.	1c	.	2g/]	.
.	.	.	.	2a/	.
.	.	2d/	.	2b\	.
.	.	2e/	.	2cc\	.
=289	=289	=289	=289	=289	=289
0D	.	2f/	.	1.dd	.
.	.	1d	.	.	.
.	.	[2f/	.	2cc\	.
=290	=290	=290	=290	=290	=290
0A	.	2f/]	.	2a/	.
.	.	1e	.	2g/	.
.	.	.	.	1cc	.
.	.	2c/	.	.	.
=291	=291	=291	=291	=291	=291
0E	.	2d/	.	2b\	.
.	.	2A/	.	1a	.
.	.	1B	.	.	.
.	.	.	.	2g#i/	.
=292	=292	=292	=292	=292	=292
0AAl	-re.	0Al	-re.	0al	-re.
==	==	==	==	==	==
*-	*-	*-	*-	*-	*-
!!!RDF**kern: l=long note in original notation
!!!RDF**kern: i=editorial accidental
!!!RDF**kern: V=start of tuplet marker
!!!RDF**kern: Z=end of tuplet marker
!!!ENC: Chris Gage
!!!END: 2015/11/01/
!!!EED: Jesse Rodin
!!!EEV: 2015/11/01/
!!!ONB: Translated from MusicXML and edited on 2015/11/01/ by Craig Sapp
!!muse2ps: C^@{COM}^i2I150v115,115,150z18l2600c56
